src/pos-icons/wall-sconce-flat.svg

<svg height="24" viewBox="0 0 24 24" width="24" xmlns="http://www.w3.org/2000/svg"><path d="m5 5v6h14v-6zm.27 8.32-1.77 1.77 1.41 1.41 1.77-1.77zm13.46 0-1.41 1.41 1.77 1.77 1.41-1.41zm-7.73 2.68v3h2v-3z"/></svg>

<?xml version="1.0" encoding="UTF-8"?><!DOCTYPE svg PUBLIC "-//W3C//DTD SVG 1.1//EN" "http://www.w3.org/Graphics/SVG/1.1/DTD/svg11.dtd"><svg xmlns="http://www.w3.org/2000/svg" xmlns:xlink="http://www.w3.org/1999/xlink" version="1.1" id="mdi-wall-sconce-flat" width="24" height="24" viewBox="0 0 24 24"><path d="M5,5V11H19V5H5M5.27,13.32L3.5,15.09L4.91,16.5L6.68,14.73L5.27,13.32M18.73,13.32L17.32,14.73L19.09,16.5L20.5,15.09L18.73,13.32M11,16V19H13V16H11Z" /></svg>
